X: 002
T: Complaining Maid
B: 204 Favourite Country Dances
N: Published by Straight & Skillern, London ca.1775
F: http://imslp.org/wiki/204_Favourite_Country_Dances_(Various) p.1 #2
Z: 2014 John Chambers <jc:trillian.mit.edu>
M: 12/8
L: 1/8
K: F
%  - - - - - - - - - - - - - - - - - - - - - - - - -
   c |\
AGF F>GF F>GF d2f | cAF F>GF FGA G2c |\
AFF F>GF AGF f2g | afc =Bcd c>dc c2 :|
|: g |\
ecc c>dc c>dc e2f | gec c>dc d=BG G2c |\
AFF F>GF F>GF d2f | cAF G>FG AFF F2 :|
%  - - - - - - - - - - - - - - - - - - - - - - - - -
%%begintext align
%% Cast off 2 Cu. lead up 1 Cu. hands 4 round
%% lead up & cast off
%%endtext

%%sep 1 1 500
%%sep 1 1 500
